X:18527
T:Watchentanz
T:Rohrpoldinger
C:Trad.
O:German
Z:Transcribed and arranged by Daryl Powell
Z:Canberra
M:3/4
L:1/4
Q:1/4=180
K:G
D/E/F/ |\
"G"G3 | B3 | "D7"d>c B/A/ | "G"G z2 d/d/ |
"G"gfe | d>BG | B/d/ g/B/ d/g/ | "D7"c/d/ f/d/ c2 | 
"C"gfe | "D7"d>cF | "C"c/d/ f/c/ d/f/ | "G"B/d/ g/d/ B |
"G"gfe | d>bG | B/d/ g/B/ d/g/ | 


